X: 41851
T: Violet's
R: waltz
M: 3/4
K: Dmajor
"D"D3 E D2|D2 F2 A2|"G"B3 A G2|"D"A2 F2 A2|"G"B3 c d2|"D"d2 A2 F2|"Em7"G3 F G2|"A7"E4 A2|
"D" D3 E D2|D2 F2 A2|"G"B3 c d2|"E7"e2 d2 e2|"D/A"f3 d AF|"A7"G2 E2 A2|"G"D3 E D2|1 "D"D4 A2:|2 "D"D4 d2||
"D"f3 e d2|"A"e2 c2 e2|"G"d3 c B2|"D"B2 A2 F2|"G"F3 A B2|B2 c2 d2|"E7"f3 e d2|"A7"e4 e2|
"D"f3 e d2|"A"e2 c2 e2|"G"d3 c Bd|"D"B2 A2 F2|"Em7"G3 A Bc|"D/F#" d2 A2 F2|"Em7"G2 F2 "A7"E2|1 "D"D4 d2:|2 "D"D6||

